X: 9
T: Battering Ram, The
Z: Finnbarr
S: https://thesession.org/tunes/382#setting49262
R: jig
M: 6/8
L: 1/8
K: Gmaj
|:dBG BAG|dBG G2B|dBG AGE|GED D2B|
dBG BAG|BdB BAG|A3 BAB|GED D2B:|
|:deg aga|bge edB|deg aga|bge e2a|
bag age|ged (4efge|dBG AGE|GED D2d:|
|:B2G A2G|B2 DD2d|BAG AGE|GED D2d|
dBG BAG|BdB BAG|A3 BAB|GED D3:|

